X: 1
T: the Nut
R: jig
B: RSCDS __-4(a)
Z: 1997 by John Chambers <jc:trillian.mit.edu>
M: 6/8
L: 1/8
K: Bb
F |: "Bb"B>cB Bed | dcB B2g | gfe dcB | "F7"dcc c2F | "Bb"B>cB Bed | dgf fba | "Eb"g2B "F7"ABc | "Bb"cBB B2z :|
A/B/ |: "F"c>dc caf | "C7"=ecd c2c |1 "F"cdc cAF | "C7"AGG GAB :|2 "Bb"d=ef "C7"gfe | "F"fgf "F7"_ed"d.C."c |]
